X: 20383
Q: "Andante"
M: 2/4
L: 1/8
K: G
E>F |\
(d>B) B<B | c2 B>c | A2 B>d |
e2 E>c | (BA) (GF) | G3 g |\
(d>B) B>B | c2 B>c | A2 B>d |\
e2 E>c | (BA) (GF) | G3 |]


